icons/hammer-line.svg

<svg xmlns="http://www.w3.org/2000/svg" width="24" height="24" fill="none"><g clip-path="url(#a)"><g><path fill="#121212" d="M20 2C20.2652 2 20.5196 2.10536 20.7071 2.29289C20.8946 2.48043 21 2.73478 21 3V8C21 8.26522 20.8946 8.51957 20.7071 8.70711C20.5196 8.89464 20.2652 9 20 9H15V22C15 22.2652 14.8946 22.5196 14.7071 22.7071C14.5196 22.8946 14.2652 23 14 23H10C9.73478 23 9.48043 22.8946 9.29289 22.7071C9.10536 22.5196 9 22.2652 9 22V9H3.5C3.23478 9 2.98043 8.89464 2.79289 8.70711C2.60536 8.51957 2.5 8.26522 2.5 8V5.618C2.5001 5.43234 2.55188 5.25037 2.64955 5.09247C2.74722 4.93458 2.88692 4.80699 3.053 4.724L8.5 2H20ZM15 4H8.972L4.5 6.236V7H11V21H13V7H15V4ZM19 4H17V7H19V4Z"/></g></g><defs><clipPath id="a"><rect width="24" height="24" fill="white"/></clipPath></defs></svg>

<svg width="24" height="24" fill="none" xmlns="http://www.w3.org/2000/svg"><g clip-path="url(#a)"><path d="M20 2a1 1 0 0 1 1 1v5a1 1 0 0 1-1 1h-5v13a1 1 0 0 1-1 1h-4a1 1 0 0 1-1-1V9H3.5a1 1 0 0 1-1-1V5.618a1 1 0 0 1 .553-.894L8.5 2H20Zm-5 2H8.972L4.5 6.236V7H11v14h2V7h2V4Zm4 0h-2v3h2V4Z" /></g><defs><clipPath id="a"><path fill="#fff" d="M0 0h24v24H0z"/></clipPath></defs></svg>
